assets/img/icons/icon_github.svg

<svg width="31" height="30" viewBox="0 0 31 30" fill="none" xmlns="http://www.w3.org/2000/svg">
<path fill-rule="evenodd" clip-rule="evenodd" d="M15.5037 0.875C7.42468 0.875 0.878662 7.42102 0.878662 15.5C0.878662 21.9603 5.06812 27.4447 10.881 29.3776C11.6141 29.5109 11.8807 29.0634 11.8807 28.673C11.8807 28.3254 11.8665 27.4066 11.8617 26.1879C7.79126 27.0686 6.93433 24.2264 6.93433 24.2264C6.26782 22.5364 5.31091 22.0841 5.31091 22.0841C3.98267 21.1796 5.41089 21.1986 5.41089 21.1986C6.8772 21.3033 7.64844 22.703 7.64844 22.703C8.95288 24.9406 11.0714 24.2931 11.9045 23.9218C12.0378 22.9744 12.4187 22.3317 12.8329 21.9651C9.58606 21.5985 6.17261 20.3417 6.17261 14.7383C6.17261 13.1387 6.7439 11.8342 7.677 10.8107C7.52942 10.4441 7.02478 8.95398 7.81983 6.94019C7.81983 6.94019 9.0481 6.54981 11.8427 8.43982C13.009 8.11609 14.2611 7.95423 15.5037 7.94946C16.7462 7.95423 17.9983 8.11609 19.1647 8.43982C21.9592 6.54981 23.1827 6.94019 23.1827 6.94019C23.9825 8.95398 23.4827 10.4441 23.3303 10.8107C24.2682 11.8342 24.83 13.1387 24.83 14.7383C24.83 20.356 21.4117 21.589 18.1554 21.9556C18.6791 22.4031 19.1456 23.2981 19.1456 24.6597C19.1456 26.6163 19.1313 28.1921 19.1313 28.673C19.1313 29.0634 19.3932 29.5204 20.1359 29.3776C25.944 27.4399 30.1287 21.9603 30.1287 15.5C30.1287 7.42102 23.5826 0.875 15.5037 0.875Z" fill="#37474F"/>
</svg>

<svg width="31" height="30" fill="none" xmlns="http://www.w3.org/2000/svg"><path fill-rule="evenodd" clip-rule="evenodd" d="M15.504.875C7.424.875.879 7.421.879 15.5c0 6.46 4.19 11.945 10.002 13.878.733.133 1-.315 1-.705 0-.348-.014-1.266-.02-2.485-4.07.88-4.927-1.962-4.927-1.962-.666-1.69-1.623-2.142-1.623-2.142-1.328-.904.1-.885.1-.885 1.466.104 2.237 1.504 2.237 1.504 1.305 2.238 3.423 1.59 4.257 1.219.133-.948.514-1.59.928-1.957-3.247-.366-6.66-1.623-6.66-7.227 0-1.6.57-2.904 1.504-3.927-.148-.367-.652-1.857.143-3.87 0 0 1.228-.391 4.023 1.499a14 14 0 013.66-.49 14 14 0 013.662.49c2.794-1.89 4.018-1.5 4.018-1.5.8 2.014.3 3.504.147 3.87.938 1.024 1.5 2.329 1.5 3.928 0 5.618-3.418 6.851-6.675 7.218.524.447.99 1.342.99 2.704 0 1.956-.014 3.532-.014 4.013 0 .39.262.847 1.005.705 5.808-1.938 9.993-7.418 9.993-13.878 0-8.079-6.546-14.625-14.625-14.625z" fill="#37474F"/></svg>
